X:28
T:Hu Hei! Kor er det vel friskt og lett
O:Norway
A:Sunnfjord, Sogn og Fjordane
C:Musikk: Traditional, Tekst: Kristofer Janson
L:1/8
M:3/4
Q:1/4=150
R:Waltz
K:Am
% %rightmargin 11.5cm
"Intro"|\
"Am"A2 A2 "E7"^G>E | "Am"A2 A2 z
% %rightmargin 2.78cm
"Vocal"[|\
E | "Am"A>B c2 B>A | "E7"B>^G E2 G>E | "Am"A2 A2 ^G>E | A2 A2 z E |
"Am"A>B c2 B>A | "E7"B>^G E2 G>E | "Am"A2 A2 "E7"^G>E | "Am"A2 A2 z B |
"C"c>B c2 e>e | "G7"e>d B3 d | "Am"c>B A>B c>A | "E7"B>^G E2 G>E | "Am"A2 A2 "E7"^G>E | "Am"A2 A2 z |]
"Instr."\
B | "C"c>B c2 e>e | "G7"e>d B3 d | "Am"c>B A>B c>A | "E7"B>^G E2 G>E | "Am"A2 A2 "E7"^G>E | "Am"A2 A2 z2 |]
W:Hu hei! kor er det vel friskt og lett
W:upp aa fjellet, upp aa fjellet!
W:Her leikar vinden i kaate sprett
W:upp aa fjellet, upp aa fjellet!
W:og foten dansar og augat loer,
W:og hjartat kveikjande hugnad foer
W:upp aa fjellet, upp aa fjellet!
W:
W:Kom upp! kom upp fraa den tronge dal
W:upp aa fjellet, upp aa fjellet!
W:Her bloes ein blaaster so frisk og sval
W:upp aa fjellet, upp aa fjellet!
W:og lidi skin utav blomar full,
W:og soli drys alt sit fagre gull
W:upp aa fjellet, upp aa fjellet!
W:
W:I dalen starvar du tung og heit,
W:kom paa fjellet, kom paa fjellet!
W:Kor fint her er, ikkje nokon veit -
W:her paa fjellet, her paa fjellet!
W:Ditt auga flyg yver nut og tind,
W:det er, som flyg det i himlen inn
W:upp fraa fjellet, upp fraa fjellet.
W:
W:Og naar so soli til kvila gjeng
W:attum fjellet, attum fjellet,
W:daa reida skuggarne upp si seng
W:attmed fjellet, attmed fjellet.
W:Daa gidrar alt i ein straalestraum,
W:og hjartat sveiper seg inn i draum
W:upp aa fjellet, upp aa fjellet!

